src/assets/images/blogs/officeBuilding.svg

<svg width="24" height="24" viewBox="0 0 24 24" fill="none" xmlns="http://www.w3.org/2000/svg">
<path d="M1.36168 6.02911C1.36168 6.02911 0.692308 4.97161 0.561058 4.68848C0.392308 4.32473 0.577933 4.23661 1.20793 4.23286C1.61106 4.23098 5.48293 4.23286 5.48293 4.23286H8.98543C8.98543 4.23286 8.95918 2.97286 8.98543 2.90536C9.01168 2.83973 14.9048 2.89223 14.9311 2.90536C14.9573 2.91848 14.9442 4.23286 14.9442 4.23286H23.0161C23.2017 4.23286 23.3948 4.40348 23.2317 4.72785C23.0686 5.05223 22.6148 5.67848 22.6148 5.67848L22.5642 22.1091L21.2611 22.8366L2.36668 22.7616L1.36356 22.186L1.36168 6.02911Z" fill="#C8C8C8"/>
<path d="M5.42969 22.3728V5.58969L11.6059 4.64844L18.4197 5.64406V22.3728L12.0222 22.7047L5.42969 22.3728Z" fill="#E1E1E1"/>
<path d="M5.43203 4.23242L18.4295 4.2343L18.4202 5.6443L5.43016 5.58992L5.43203 4.23242ZM1.36328 22.1874L8.86141 22.1368C8.86141 22.1368 8.85203 16.3412 8.86141 16.1087C8.86703 15.9399 8.90828 15.8012 9.12391 15.7862C9.33953 15.7712 14.3402 15.7712 14.5258 15.7712C14.7095 15.7712 14.8483 15.878 14.8483 16.1405V22.1274C14.8483 22.1274 22.5677 22.0562 22.5639 22.1143C22.5583 22.1724 22.5733 22.973 22.5733 23.0818C22.5733 23.1887 22.5264 23.3443 22.2339 23.3443H1.61266C1.48891 23.3443 1.36703 23.2205 1.36703 23.0668C1.36703 22.913 1.36328 22.1874 1.36328 22.1874Z" fill="#9A9A9A"/>
<path d="M10.2616 6.17435H13.6291V8.16935H10.2616V6.17435ZM10.2447 9.41435H13.6459V11.3306H10.2447V9.41435ZM10.2128 12.6562H13.6459V14.715H10.2128V12.6562ZM15.3222 6.2381C15.3053 6.28685 15.3222 8.2181 15.3222 8.2181L17.3772 8.21248C17.3772 8.21248 17.4053 6.26248 17.3659 6.2231C17.3266 6.18373 15.3372 6.18935 15.3222 6.2381ZM15.3541 9.3506L15.3691 11.3137L17.3172 11.2987L17.3491 9.38248L15.3541 9.3506ZM15.4497 12.6712C15.4497 12.6712 15.4009 14.5706 15.4328 14.6194C15.4647 14.6681 17.3172 14.6681 17.3809 14.6194C17.4447 14.5706 17.3809 12.6881 17.3809 12.6881L15.4497 12.6712ZM15.4591 15.8419L15.4741 17.8162C15.4741 17.8162 17.3134 17.8594 17.3566 17.8162C17.3997 17.7731 17.4428 15.885 17.3847 15.8419C17.3266 15.7987 15.4591 15.8419 15.4591 15.8419ZM15.5116 19.0575L15.5378 21.0187C15.5378 21.0187 17.3509 21.0337 17.3903 21.0056C17.4297 20.9775 17.4316 19.1287 17.4053 19.0725C17.3791 19.0162 15.5116 19.0575 15.5116 19.0575ZM19.5897 20.9887C19.6122 21.0169 21.5453 21.0169 21.5453 21.0169C21.5453 21.0169 21.6053 19.0856 21.5359 19.0575C21.4853 19.035 19.5728 19.0069 19.5466 19.0294C19.4866 19.0837 19.5728 20.9681 19.5897 20.9887ZM19.5616 15.9394C19.5316 16.0144 19.5053 17.9137 19.5466 17.9287C19.5897 17.9437 21.4366 17.9569 21.4928 17.9287C21.5491 17.9006 21.5922 16.0106 21.5359 15.9675C21.4797 15.9244 19.5897 15.87 19.5616 15.9394ZM19.5203 14.685C19.5709 14.7487 21.3953 14.7412 21.4516 14.7131C21.5078 14.685 21.4797 12.8512 21.4366 12.7819C21.3934 12.7125 19.5616 12.7537 19.5184 12.7969C19.4753 12.84 19.4641 14.6137 19.5203 14.685ZM19.5766 9.5231C19.5409 9.59435 19.5766 11.3569 19.6047 11.4131C19.6328 11.4694 21.4666 11.4694 21.4947 11.4281C21.5228 11.385 21.5378 9.58123 21.5097 9.5381C21.4797 9.49498 19.6047 9.46685 19.5766 9.5231ZM19.6178 8.19748C19.6684 8.2481 21.5078 8.21248 21.5491 8.19748C21.5922 8.18248 21.5772 6.32248 21.5641 6.25123C21.5491 6.17998 19.6609 6.2231 19.6028 6.25123C19.5484 6.27935 19.5484 8.12623 19.6178 8.19748ZM6.34657 6.16873C6.3297 6.21748 6.34657 8.14873 6.34657 8.14873L8.39032 8.11685C8.39032 8.11685 8.4297 6.1931 8.39032 6.15373C8.35095 6.11248 6.36345 6.11998 6.34657 6.16873ZM6.39345 9.40685C6.39345 9.40685 6.34282 11.3212 6.40657 11.3531C6.47032 11.385 8.30032 11.4019 8.36407 11.3531C8.42782 11.3044 8.37532 9.3881 8.37532 9.3881L6.39345 9.40685ZM6.42532 12.675C6.3897 12.7012 6.37657 14.5744 6.40845 14.6231C6.44032 14.6719 8.29282 14.6719 8.35657 14.6231C8.42032 14.5744 8.40532 12.7387 8.35657 12.6919C8.30782 12.645 6.48907 12.6281 6.42532 12.675ZM6.36157 15.87C6.31095 15.9206 6.33345 17.8012 6.37657 17.8444C6.4197 17.8875 8.25907 17.8444 8.25907 17.8444L8.2872 15.87C8.2872 15.87 6.41782 15.8137 6.36157 15.87ZM6.37282 19.0069V20.985L8.21407 20.9681L8.25532 19.0219L6.37282 19.0069ZM2.41095 20.9681L4.3422 20.9531L4.35532 18.9881C4.35532 18.9881 2.40907 18.9375 2.36782 19.0087C2.32657 19.0781 2.41095 20.9681 2.41095 20.9681ZM2.38282 15.9187C2.35282 15.9937 2.32657 17.8931 2.36782 17.9081C2.41095 17.9231 4.25782 17.9362 4.31407 17.9081C4.37032 17.88 4.41345 15.99 4.3572 15.9469C4.30095 15.9037 2.41095 15.8475 2.38282 15.9187ZM2.3397 14.6644C2.39032 14.7281 4.2147 14.7206 4.27095 14.6925C4.3272 14.6644 4.29907 12.8306 4.25595 12.7612C4.21282 12.69 2.38095 12.7331 2.33782 12.7762C2.29845 12.8156 2.28345 14.5931 2.3397 14.6644ZM2.39595 9.50248C2.36032 9.57373 2.39595 11.3362 2.42407 11.3925C2.4522 11.4487 4.28595 11.4487 4.31407 11.4075C4.3422 11.3644 4.3572 9.5606 4.32907 9.51748C4.30095 9.47435 2.42407 9.44623 2.39595 9.50248ZM2.43907 8.17685C2.4897 8.22748 4.32907 8.19185 4.37032 8.17685C4.41345 8.16185 4.39845 6.30185 4.38532 6.2306C4.3722 6.15935 2.4822 6.20248 2.42407 6.2306C2.36782 6.25873 2.36782 8.1056 2.43907 8.17685Z" fill="#6CA4AB"/>
<path d="M9.70481 22.1915C9.69168 22.1784 9.66543 18.4472 9.71793 18.3797C9.77231 18.3122 14.0004 18.3534 14.0398 18.3928C14.0792 18.4322 14.0661 22.1653 14.0529 22.1915C14.0398 22.2178 9.70481 22.1915 9.70481 22.1915Z" fill="#E1E1E1"/>
<path d="M10.1025 18.7439H11.6907V21.8677H10.1025V18.7439ZM12.0994 18.7383H13.7213V21.862H12.0994V18.7383Z" fill="#536F7B"/>
</svg>

<svg xmlns="http://www.w3.org/2000/svg" width="24" height="24" fill="none"><path fill="#C8C8C8" d="M1.362 6.03s-.67-1.058-.8-1.342c-.17-.363.016-.451.646-.455.403-.002 4.275 0 4.275 0h3.502s-.026-1.26 0-1.328c.027-.065 5.92-.013 5.946 0s.013 1.328.013 1.328h8.072c.186 0 .379.17.216.495s-.617.95-.617.95l-.05 16.431-1.304.728-18.894-.075-1.003-.576z"/><path fill="#E1E1E1" d="M5.43 22.373V5.59l6.176-.942 6.814.996v16.729l-6.398.332z"/><path fill="#9A9A9A" d="m5.432 4.232 12.997.002-.009 1.41L5.43 5.59zM1.363 22.187l7.498-.05s-.009-5.796 0-6.028c.006-.17.047-.308.263-.323s5.216-.015 5.402-.015c.184 0 .322.107.322.37v5.986s7.72-.07 7.716-.013c-.006.058.01.859.01.968 0 .107-.048.262-.34.262H1.613c-.124 0-.246-.123-.246-.277z"/><path fill="#6CA4AB" d="M10.262 6.174h3.367V8.17h-3.367zm-.017 3.24h3.4v1.917h-3.4zm-.032 3.242h3.433v2.059h-3.433zm5.11-6.418c-.018.049 0 1.98 0 1.98l2.054-.006s.028-1.95-.011-1.989c-.04-.04-2.029-.034-2.044.015m.031 3.113.015 1.963 1.948-.015.032-1.917zm.096 3.32s-.05 1.9-.017 1.948c.032.05 1.884.05 1.948 0 .064-.048 0-1.93 0-1.93zm.01 3.17.014 1.975s1.84.043 1.883 0 .086-1.931.028-1.974-1.926 0-1.926 0m.052 3.217.026 1.96s1.813.016 1.852-.012c.04-.029.042-1.877.015-1.933-.026-.057-1.893-.015-1.893-.015m4.078 1.93c.022.029 1.955.029 1.955.029s.06-1.931-.01-1.96c-.05-.022-1.962-.05-1.988-.028-.06.055.026 1.94.043 1.96m-.028-5.049c-.03.075-.057 1.975-.015 1.99s1.89.028 1.946 0 .1-1.918.043-1.961c-.056-.044-1.946-.098-1.974-.029m-.042-1.254c.05.064 1.875.056 1.932.028s.028-1.862-.015-1.931c-.044-.07-1.875-.028-1.919.015-.043.043-.054 1.817.002 1.888m.057-5.162c-.036.071 0 1.834.028 1.89s1.862.056 1.89.015c.028-.043.043-1.847.015-1.89-.03-.043-1.905-.071-1.933-.015m.04-1.326c.051.051 1.89.015 1.932 0s.028-1.875.015-1.946c-.015-.071-1.903-.028-1.961 0-.055.028-.055 1.875.015 1.946M6.348 6.17c-.017.048 0 1.98 0 1.98l2.043-.032s.04-1.924 0-1.963c-.04-.042-2.027-.034-2.043.015m.046 3.238s-.05 1.914.014 1.946c.063.032 1.893.049 1.957 0s.011-1.965.011-1.965zm.032 3.268c-.035.026-.048 1.9-.017 1.948.032.049 1.885.049 1.949 0 .063-.049.048-1.884 0-1.931-.05-.047-1.868-.064-1.932-.017m-.063 3.195c-.051.05-.029 1.931.015 1.974.043.043 1.882 0 1.882 0l.028-1.974s-1.87-.056-1.925 0m.01 3.137v1.978l1.842-.017.041-1.946zm-3.961 1.961 1.931-.015.013-1.965s-1.946-.05-1.987.02.043 1.96.043 1.96m-.028-5.05c-.03.076-.056 1.975-.015 1.99.043.015 1.89.028 1.946 0s.1-1.918.043-1.961c-.056-.043-1.946-.1-1.974-.028m-.043-1.254c.05.064 1.875.057 1.931.029.056-.029.028-1.862-.015-1.932-.043-.071-1.875-.028-1.918.015-.04.04-.055 1.817.002 1.888m.056-5.162c-.036.072 0 1.834.028 1.89.028.057 1.862.057 1.89.016.028-.044.043-1.847.015-1.89-.028-.044-1.905-.072-1.933-.016m.043-1.325c.05.05 1.89.015 1.931 0 .043-.015.028-1.875.015-1.946-.013-.072-1.903-.029-1.96 0-.057.028-.057 1.875.014 1.946"/><path fill="#E1E1E1" d="M9.705 22.192c-.013-.014-.04-3.745.013-3.812.054-.068 4.282-.027 4.322.013s.026 3.772.013 3.799c-.013.026-4.348 0-4.348 0"/><path fill="#536F7B" d="M10.103 18.744h1.588v3.124h-1.589zm1.996-.006h1.622v3.124H12.1z"/></svg>
